X:1
T:Tampico, CM
T:Tampico, CM
T:Anonymous, 1870
T:Public Domain Courtesy of the Cyber Hymnal™
C:Anonymous, 1870
Z:Public Domain
Z:Courtesy of the Cyber Hymnal™
%%score ( 1 2 ) ( 3 4 )
L:1/8
Q:1/4=130
M:3/4
K:D
V:1 treble 
V:2 treble 
V:3 bass 
V:4 bass 
V:1
 D2 | [DF]4 [FA]2 | [FA]4 [DF]2 | [DG]4 [GB]2 | [GB]4 [DG]2 | [DF]4 [FA]2 | [FA]4 [DF]2 | %7
 !fermata![CE]4 [CE]2 | [CA]4 [CE]2 | [DF]4 [Dd]2 | [Dc]4 [DB]2 | [DA]4 [DF]2 | [FA]4 [DF]2 | %13
 (D3 E) [DF]2 | !fermata![CE]4 [CE]2 | [DF]4 [FA]2 | D4 [CE]2 | !fermata![DF]4 |] %18
V:2
 D2 | x6 | x6 | x6 | x6 | x6 | x6 | x6 | x6 | x6 | x6 | x6 | x6 | D4 x2 | x6 | x6 | D4 x2 | x4 |] %18
V:3
 [D,F,]2 | [D,A,]4 [D,D]2 | [D,D]4 [D,A,]2 | [G,B,]4 [G,D]2 | [G,D]4 [G,B,]2 | [D,A,]4 [D,D]2 | %6
 [D,D]4 [F,A,]2 | !fermata!A,4 [A,,A,]2 | [A,,A,]4 [A,,A,]2 | [D,A,]4 [D,B,]2 | [D,A,]4 [D,G,]2 | %11
 [D,F,]4 [D,A,]2 | [D,D]4 [D,A,]2 | A,4 [D,A,]2 | !fermata![A,,A,]4 [A,,A,]2 | [D,A,]4 [D,D]2 | %16
 [B,,F,]4 [A,,A,]2 | !fermata![D,A,]4 |] %18
V:4
 x2 | x6 | x6 | x6 | x6 | x6 | x6 | A,4 x2 | x6 | x6 | x6 | x6 | x6 | (F,3 E,) x2 | x6 | x6 | x6 | %17
 x4 |] %18

